X: 20212
T: Joe Bane's
R: barndance
M: 4/4
K: Gmajor
ge|d2 GA B2 BA|d2 G2 G2 ge|d2 GA B2 AG|B2 A2 A2 ge|
d2 GA B2 AG|B2 d2 g2 ge|d2 de dB GB|A2 G2 G2:|
ef|g2 ga ge d2|e2 ed e2 ge|d2 GA B2 AG|B2 A2 A2 ef|
g2 ga ge d2|e2 ed e2 ge|d2 de dB GB|A2 G2 G2:|

